!!!OTL: Verschlafener Jaeger Es begab sich ein Jaeger auf's Jagen
!!!ARE: Europa, Mitteleuropa, Oesterreich / Italia, Sued - Tirol, Feldthurns
!!!YOR: 7, S. 215
!!    1907 aufgezeichnet
!!!SCT: Q0152H
!!!YEM: Copyright 1995, estate of Helmut Schaffrath.
**kern
*ICvox
*Ivox
*M3/8
*k[f#]
*G:
{16b
16b
=1
8b
8a
8g
=2
8g
8f#
8g
=3
8a
8f#}
{8cc
=4
8cc
8b
8a
=5
8a
8g
8a
=6
8b
8g}
{8dd
=7
8b
8b
8b
=8
8b
8a
8g
=9
4dd}
{8cc
=10
8b
8b
8b
=11
8a
8a
8a
=12
4g}
==
!!!AGN: Ballade, Verfuehrung, Versagen, Spott
!!!ONB: ESAC (Essen Associative Code) Database: BALLADE
!!!AMT: simple triple
!!!AIN: vox
!!!EED: Helmut Schaffrath
!!!EEV: 1.0
*-
